www/img/logo_white.svg

<?xml version="1.0" encoding="UTF-8" standalone="no"?>
<!-- Created with Inkscape (http://www.inkscape.org/) -->

<svg
   xmlns:dc="http://purl.org/dc/elements/1.1/"
   xmlns:cc="http://creativecommons.org/ns#"
   xmlns:rdf="http://www.w3.org/1999/02/22-rdf-syntax-ns#"
   xmlns:svg="http://www.w3.org/2000/svg"
   xmlns="http://www.w3.org/2000/svg"
   xmlns:sodipodi="http://sodipodi.sourceforge.net/DTD/sodipodi-0.dtd"
   xmlns:inkscape="http://www.inkscape.org/namespaces/inkscape"
   id="svg3103"
   version="1.1"
   inkscape:version="0.48.5 r10040"
   width="195.00002"
   height="168.51857"
   sodipodi:docname="logo_black.svg">
  <metadata
     id="metadata3109">
    <rdf:RDF>
      <cc:Work
         rdf:about="">
        <dc:format>image/svg+xml</dc:format>
        <dc:type
           rdf:resource="http://purl.org/dc/dcmitype/StillImage" />
        <dc:title></dc:title>
      </cc:Work>
    </rdf:RDF>
  </metadata>
  <defs
     id="defs3107" />
  <sodipodi:namedview
     pagecolor="#ffffff"
     bordercolor="#666666"
     borderopacity="1"
     objecttolerance="10"
     gridtolerance="10"
     guidetolerance="10"
     inkscape:pageopacity="0"
     inkscape:pageshadow="2"
     inkscape:window-width="1673"
     inkscape:window-height="1002"
     id="namedview3105"
     showgrid="false"
     fit-margin-top="0"
     fit-margin-left="0"
     fit-margin-right="0"
     fit-margin-bottom="0"
     inkscape:zoom="2.3888484"
     inkscape:cx="119.24945"
     inkscape:cy="99.721888"
     inkscape:window-x="0"
     inkscape:window-y="0"
     inkscape:window-maximized="0"
     inkscape:current-layer="svg3103" />
  <path
     style="fill:#f9f9f9"
     d="M 46.19197,165.25929 C 37.11914,150.34429 0,85.04497 0,83.999215 0,83.265598 10.74053,64.065659 23.86783,41.332683 L 47.73566,0 97.50001,0 147.26436,0 171.13218,41.332683 C 184.25949,64.065659 195.00001,83.265951 195.00001,84 c 0,0.734049 -10.74044,19.93434 -23.86765,42.66732 L 147.26471,168 97.71966,168.25929 48.1746,168.51857 46.19197,165.25929 z M 155.03675,118.25 c 10.57792,-18.287503 19.23259,-33.7 19.23259,-34.25 0,-0.55 -8.65467,-15.9625 -19.23259,-34.25 l -19.23258,-33.25 -38.30416,0 -38.30417,0 -19.23258,33.25 C 29.38534,68.0375 20.73068,83.45 20.73068,84 c 0,0.55 8.65466,15.962497 19.23258,34.25 l 19.23258,33.25 38.30417,0 38.30416,0 19.23258,-33.25 z M 54.20821,132.21215 C 51.8937,129.85383 50,127.22625 50,126.37309 c 0,-0.85317 2.18399,-3.53614 4.8533,-5.96215 2.66931,-2.42602 11.07289,-10.39625 18.67462,-17.71163 L 87.34925,89.398627 80.27831,82.199314 c -3.88902,-3.959623 -8.63843,-8.946849 -10.55425,-11.082726 -1.91582,-2.135876 -3.92508,-3.610383 -4.46502,-3.276682 -0.53994,0.333702 -3.18161,3.991531 -5.87037,8.12851 -2.68877,4.136979 -5.6668,7.776337 -6.61785,8.087464 l -1.72919,0.565685 -8.02081,-6.105723 C 38.60937,75.157694 35,71.996016 35,71.48989 35,70.194093 45.55882,53.864769 49.73335,48.704607 54.87449,42.34962 74.8381,28.460077 78.72549,28.533529 l 1.77451,0.03353 5.39635,7.168098 c 2.96799,3.942454 5.58409,7.886013 5.81354,8.763464 l 0.4172,1.595365 -9.0787,6.103755 -9.0787,6.103754 11.20591,10.599253 c 6.16326,5.829588 11.45758,10.596643 11.76516,10.593453 0.30759,-0.0032 5.47631,-4.638861 11.48604,-10.301494 l 10.92679,-10.295695 -6.83527,-6.768312 -6.83527,-6.768313 8.3864,-8.430194 C 118.68197,32.293587 122.92879,28.5 123.50682,28.5 c 0.57803,0 3.94225,2.917215 7.47604,6.482699 l 6.42508,6.482699 2.04603,-1.913911 2.04604,-1.913912 3.75,3.444671 c 4.28632,3.937318 4.34011,4.108212 2.07942,6.606245 l -1.67058,1.845973 2.63788,2.753353 2.63788,2.753354 4.0327,10.870677 c 4.09872,11.048645 4.72723,14.040873 3.15355,15.013465 -0.48354,0.298841 -5.99604,-1.316459 -12.25,-3.589554 l -11.37085,-4.132901 -3.23502,-3.033076 c -1.77926,-1.668192 -3.35426,-2.824272 -3.5,-2.569067 -0.14574,0.255205 -4.93906,5.243916 -10.65181,11.086024 l -10.38684,10.622008 13.88684,13.416203 c 7.63775,7.37891 16.02433,15.35425 18.63683,17.72298 2.6125,2.36874 4.75,5.09217 4.75,6.05207 0,1.89243 -8.2122,10 -10.12905,10 -0.64555,0 -3.46811,-2.38065 -6.27234,-5.29034 -2.80424,-2.90968 -10.82427,-11.20448 -17.82231,-18.43288 L 97.05261,99.634227 79.20101,118.06711 C 69.38264,128.2052 60.6895,136.5 59.88292,136.5 c -0.80657,0 -3.36019,-1.92953 -5.67471,-4.28785 z"
     id="path3117"
     inkscape:connector-curvature="0" />
</svg>

<?xml version="1.0" encoding="UTF-8" standalone="no"?>
<!-- Created with Inkscape (http://www.inkscape.org/) -->
<svg id="svg3103" xmlns:rdf="http://www.w3.org/1999/02/22-rdf-syntax-ns#" xmlns="http://www.w3.org/2000/svg" viewBox="0 0 195 168.52" version="1.1" xmlns:cc="http://creativecommons.org/ns#" xmlns:dc="http://purl.org/dc/elements/1.1/">
 <metadata id="metadata3109">
  <rdf:RDF>
   <cc:Work rdf:about="">
    <dc:format>image/svg+xml</dc:format>
    <dc:type rdf:resource="http://purl.org/dc/dcmitype/StillImage"/>
    <dc:title/>
   </cc:Work>
  </rdf:RDF>
 </metadata>
 <path id="path3117" fill="#f9f9f9" d="m46.192 165.26c-9.073-14.92-46.192-80.215-46.192-81.261 0-0.733 10.741-19.933 23.868-42.666l23.868-41.333h49.764 49.76l23.87 41.333c13.13 22.733 23.87 41.933 23.87 42.667 0 0.73405-10.74 19.934-23.868 42.667l-23.87 41.33-49.54 0.26-49.545 0.26-1.983-3.26zm108.85-47.01c10.578-18.288 19.233-33.7 19.233-34.25s-8.6547-15.962-19.233-34.25l-19.233-33.25h-38.304-38.304l-19.233 33.25c-10.585 18.288-19.239 33.7-19.239 34.25s8.6547 15.962 19.233 34.25l19.233 33.25h38.304 38.304l19.233-33.25zm-100.83 13.96c-2.314-2.36-4.208-4.98-4.208-5.84 0-0.85317 2.184-3.5361 4.8533-5.9622 2.6693-2.426 11.073-10.396 18.675-17.712l13.821-13.301-7.071-7.2c-3.889-3.9596-8.6384-8.9468-10.554-11.083-1.9158-2.1359-3.9251-3.6104-4.465-3.2767-0.53994 0.3337-3.1816 3.9915-5.8704 8.1285s-5.6668 7.7763-6.6178 8.0875l-1.7292 0.56568-8.0208-6.1057c-4.412-3.357-8.021-6.519-8.021-7.025 0-1.296 10.559-17.625 14.733-22.785 5.141-6.355 25.105-20.245 28.992-20.171l1.7745 0.03353 5.3964 7.1681c2.968 3.9425 5.5841 7.886 5.8135 8.7635l0.4172 1.5954-9.0787 6.1038-9.0787 6.1038 11.206 10.599c6.1633 5.8296 11.458 10.597 11.765 10.593 0.30759-0.0032 5.4763-4.6389 11.486-10.301l10.927-10.296-6.8353-6.7683-6.8353-6.7683 8.3864-8.4302c4.61-4.638 8.86-8.432 9.44-8.432 0.57803 0 3.9422 2.9172 7.476 6.4827l6.4251 6.4827 2.046-1.9139 2.046-1.9139 3.75 3.4447c4.2863 3.9373 4.3401 4.1082 2.0794 6.6062l-1.6706 1.846 2.6379 2.7534 2.6379 2.7534 4.0327 10.871c4.0987 11.049 4.7272 14.041 3.1536 15.013-0.48354 0.29884-5.996-1.3165-12.25-3.5896l-11.371-4.1329-3.235-3.0331c-1.7793-1.6682-3.3543-2.8243-3.5-2.5691-0.14574 0.2552-4.9391 5.2439-10.652 11.086l-10.387 10.622 13.887 13.416c7.6378 7.3789 16.024 15.354 18.637 17.723 2.6125 2.3687 4.75 5.0922 4.75 6.0521 0 1.8924-8.2122 10-10.129 10-0.64555 0-3.4681-2.3806-6.2723-5.2903s-10.824-11.204-17.822-18.433l-12.727-13.136-17.852 18.436c-9.818 10.14-18.511 18.43-19.318 18.43-0.80657 0-3.3602-1.9295-5.6747-4.2878z"/>
</svg>
